X:26
T:Captain McKenzie
T:Inverey's Strathspey
S:Petrie's Second Collection of Strathspey Reels and Country Dances &c.
Z:Steve Wyrick , 6/5/04
N:Petrie's Second Collection, page 9
% Gore's Index gives earliest publication as John Hamilton's 
% "A Choice Coll of Scots Reels, or C.C. & Str."  no date, Petrie's may be older
L:1/8
M:C
R:Strathspey
K:Am
A>Bc>e eA/A/ ce|G<GB>A G2 G>B|A>Bc>e eA/A/ ca|g<eg>B A2 AB:|
c>BA<a ge    g2|G<GB>A G2 G>B|c>BA<a ge    g2|a>eg>B A2 AB |
c>BA<a g<e   g2|G<GB>A G>AB<G|A>Bc<A c>de<a  |g<eg<B A2 A2|]
